src/2-landmarks/totem--qr.svg

<svg width="1300" height="1000" viewBox="0 0 1300 1000" fill="none" xmlns="http://www.w3.org/2000/svg"><path fill-rule="evenodd" clip-rule="evenodd" d="M740 312c-8.284 0-15 6.716-15 15v154c0 8.284 6.716 15 15 15h127c8.284 0 15-6.716 15-15V327c0-8.284-6.716-15-15-15H740Zm2.016 7.472c-5.523 0-10 4.477-10 10v149.056c0 5.523 4.477 10 10 10h122.966c5.523 0 10-4.477 10-10V329.472c0-5.523-4.477-10-10-10H742.016Z" fill="#000"/><path d="M0 900h1300v100H0V900Z" fill="#000"/><path fill-rule="evenodd" clip-rule="evenodd" d="M777 375a2 2 0 0 0-2 2v54a2 2 0 0 0 2 2h54a2 2 0 0 0 2-2v-54a2 2 0 0 0-2-2h-54Zm4 5a1 1 0 0 0-1 1v46a1 1 0 0 0 1 1h46a1 1 0 0 0 1-1v-46a1 1 0 0 0-1-1h-46Z" fill="#000"/><path d="M818 418h6v6h-6v-6Zm0-12h6v6h-6v-6Zm-12 6h6v6h-6v-6Zm0-6h6v6h-6v-6Zm6 6h6v6h-6v-6Zm0 6h6v6h-6v-6Zm-22.469-28.469h7.011v7.011h-7.011v-7.011Zm.078 22.078h7.011v7.011h-7.011v-7.011Zm22.004-22h7.011v7.011h-7.011v-7.011Z" fill="#000"/><path fill-rule="evenodd" clip-rule="evenodd" d="M785.422 383.922a1.5 1.5 0 0 0-1.5 1.5v15.228a1.5 1.5 0 0 0 1.5 1.5h15.228a1.5 1.5 0 0 0 1.5-1.5v-15.228a1.5 1.5 0 0 0-1.5-1.5h-15.228Zm13.926 2.805h-12.62v12.619h12.62v-12.619ZM785.5 406a1.5 1.5 0 0 0-1.5 1.5v15.229a1.5 1.5 0 0 0 1.5 1.5h15.229a1.5 1.5 0 0 0 1.5-1.5V407.5a1.5 1.5 0 0 0-1.5-1.5H785.5Zm13.926 2.805h-12.62v12.62h12.62v-12.62ZM807.5 384a1.5 1.5 0 0 0-1.5 1.5v15.229a1.5 1.5 0 0 0 1.5 1.5h15.229a1.5 1.5 0 0 0 1.5-1.5V385.5a1.5 1.5 0 0 0-1.5-1.5H807.5Zm13.926 2.805h-12.62v12.62h12.62v-12.62Z" fill="#000"/></svg>

<svg width="1300" height="1000" viewBox="0 0 1300 1000" fill="none" xmlns="http://www.w3.org/2000/svg">
<path fill-rule="evenodd" clip-rule="evenodd" d="M740 312C731.716 312 725 318.716 725 327V481C725 489.284 731.716 496 740 496H867C875.284 496 882 489.284 882 481V327C882 318.716 875.284 312 867 312H740ZM742.016 319.472C736.493 319.472 732.016 323.949 732.016 329.472V478.528C732.016 484.051 736.493 488.528 742.016 488.528H864.982C870.505 488.528 874.982 484.051 874.982 478.528V329.472C874.982 323.949 870.505 319.472 864.982 319.472H742.016Z" fill="black"/>
<path d="M0 900H1300V1000H0V900Z" fill="black"/>
<path fill-rule="evenodd" clip-rule="evenodd" d="M777 375C775.895 375 775 375.895 775 377V431C775 432.105 775.895 433 777 433H831C832.105 433 833 432.105 833 431V377C833 375.895 832.105 375 831 375H777ZM781 380C780.448 380 780 380.448 780 381V427C780 427.552 780.448 428 781 428H827C827.552 428 828 427.552 828 427V381C828 380.448 827.552 380 827 380H781Z" fill="black"/>
<path d="M818 418H824V424H818V418Z" fill="black"/>
<path d="M818 406H824V412H818V406Z" fill="black"/>
<path d="M806 412H812V418H806V412Z" fill="black"/>
<path d="M806 406H812V412H806V406Z" fill="black"/>
<path d="M812 412H818V418H812V412Z" fill="black"/>
<path d="M812 418H818V424H812V418Z" fill="black"/>
<path d="M789.531 389.531H796.542V396.542H789.531V389.531Z" fill="black"/>
<path d="M789.609 411.609H796.62V418.62H789.609V411.609Z" fill="black"/>
<path d="M811.613 389.609H818.624V396.62H811.613V389.609Z" fill="black"/>
<path fill-rule="evenodd" clip-rule="evenodd" d="M785.422 383.922C784.593 383.922 783.922 384.593 783.922 385.422V400.65C783.922 401.479 784.593 402.15 785.422 402.15H800.65C801.479 402.15 802.15 401.479 802.15 400.65V385.422C802.15 384.593 801.479 383.922 800.65 383.922H785.422ZM799.348 386.727H786.728V399.346H799.348V386.727Z" fill="black"/>
<path fill-rule="evenodd" clip-rule="evenodd" d="M785.5 406C784.672 406 784 406.672 784 407.5V422.729C784 423.557 784.672 424.229 785.5 424.229H800.729C801.557 424.229 802.229 423.557 802.229 422.729V407.5C802.229 406.672 801.557 406 800.729 406H785.5ZM799.426 408.805H786.806V421.425H799.426V408.805Z" fill="black"/>
<path fill-rule="evenodd" clip-rule="evenodd" d="M807.5 384C806.672 384 806 384.672 806 385.5V400.729C806 401.557 806.672 402.229 807.5 402.229H822.729C823.557 402.229 824.229 401.557 824.229 400.729V385.5C824.229 384.672 823.557 384 822.729 384H807.5ZM821.426 386.805H808.806V399.425H821.426V386.805Z" fill="black"/>
</svg>
